img/hero/cafe.svg

<svg width="57" height="58" viewBox="0 0 57 58" fill="none" xmlns="http://www.w3.org/2000/svg">
<path d="M46.5989 25.7856C46.5989 25.6298 46.5432 25.4763 46.4287 25.3618L41.6337 20.5668C41.5216 20.4541 41.3694 20.3912 41.2099 20.3912H35.2162V19.1924H38.213C38.5445 19.1924 38.8124 18.9239 38.8124 18.5931V9.003C38.8124 8.67215 38.5445 8.40363 38.213 8.40363H17.8342C17.5027 8.40363 17.2348 8.67215 17.2348 9.003V18.5931C17.2348 18.9239 17.5027 19.1924 17.8342 19.1924H20.8311V20.3912H14.8373C14.6778 20.3912 14.5256 20.4541 14.4135 20.5668L9.61849 25.3618C9.50401 25.4763 9.44827 25.6298 9.44827 25.7856H9.44287V28.7825C9.44287 29.844 9.90799 30.7964 10.6416 31.4557V44.9657C10.6416 45.2966 10.9096 45.5651 11.241 45.5651H44.8062C45.1377 45.5651 45.4056 45.2966 45.4056 44.9657V31.4557C46.1392 30.797 46.6043 29.8446 46.6043 28.7825V25.7856H46.5989ZM34.0174 20.3912H32.8186V19.1924H34.0174V20.3912ZM31.6199 19.1924V20.3912H24.4273V19.1924H31.6199ZM18.4335 9.60238H37.6137V17.9937H18.4335V9.60238ZM22.0298 19.1924H23.2286V20.3912H22.0298V19.1924ZM15.0854 21.59H40.9618L44.5581 25.1862H11.4891L15.0854 21.59ZM10.6416 28.7825V26.385H15.4367V28.7825C15.4367 30.1047 14.3614 31.18 13.0391 31.18C11.7169 31.18 10.6416 30.1047 10.6416 28.7825ZM16.6354 26.385H21.4304V28.7825C21.4304 30.1047 20.3552 31.18 19.0329 31.18C17.7107 31.18 16.6354 30.1047 16.6354 28.7825V26.385ZM22.6292 26.385H27.4242V28.7825C27.4242 30.1047 26.3489 31.18 25.0267 31.18C23.7045 31.18 22.6292 30.1047 22.6292 28.7825V26.385ZM28.623 26.385H33.418V28.7825C33.418 30.1047 32.3427 31.18 31.0205 31.18C29.6983 31.18 28.623 30.1047 28.623 28.7825V26.385ZM34.6168 26.385H39.4118V28.7825C39.4118 30.1047 38.3365 31.18 37.0143 31.18C35.6921 31.18 34.6168 30.1047 34.6168 28.7825V26.385ZM23.828 44.3663H20.2317V35.975H23.828V44.3663ZM19.0329 44.3663H15.4367V35.975H19.0329V44.3663ZM40.6106 44.3663H37.0143V35.975H40.6106V44.3663ZM35.8155 44.3663H32.2193V35.975H35.8155V44.3663ZM44.2068 44.3663H41.8093V35.3757C41.8093 35.0448 41.5414 34.7763 41.2099 34.7763H31.6199C31.2884 34.7763 31.0205 35.0448 31.0205 35.3757V44.3663H25.0267V35.3757C25.0267 35.0448 24.7588 34.7763 24.4273 34.7763H14.8373C14.5058 34.7763 14.2379 35.0448 14.2379 35.3757V44.3663H11.8404V32.169C12.2162 32.302 12.6184 32.3788 13.0391 32.3788C14.2894 32.3788 15.3911 31.7368 16.036 30.7664C16.681 31.7374 17.7826 32.3788 19.0329 32.3788C20.2832 32.3788 21.3849 31.7368 22.0298 30.7664C22.6748 31.7374 23.7764 32.3788 25.0267 32.3788C26.277 32.3788 27.3787 31.7368 28.0236 30.7664C28.6685 31.7374 29.7702 32.3788 31.0205 32.3788C32.2708 32.3788 33.3725 31.7368 34.0174 30.7664C34.6623 31.7374 35.764 32.3788 37.0143 32.3788C38.2646 32.3788 39.3662 31.7368 40.0112 30.7664C40.6561 31.7374 41.7578 32.3788 43.0081 32.3788C43.4288 32.3788 43.831 32.302 44.2068 32.169V44.3663ZM43.0081 31.18C41.6858 31.18 40.6106 30.1047 40.6106 28.7825V26.385H45.4056V28.7825C45.4056 30.1047 44.3303 31.18 43.0081 31.18Z" fill="white"/>
<path d="M19.6323 12.5993V14.9968C19.6323 15.9882 20.4391 16.7949 21.4305 16.7949H23.2286V15.5962H21.4305C21.0996 15.5962 20.8311 15.327 20.8311 14.9968V12.5993C20.8311 12.269 21.0996 11.9999 21.4305 11.9999H23.2286V10.8011H21.4305C20.4391 10.8011 19.6323 11.6079 19.6323 12.5993Z" fill="white"/>
<path d="M29.2222 11.9999V16.7949H30.4209V14.3974H32.2191V13.1986H30.4209V11.9999H32.2191V10.8011H30.4209C29.7598 10.8011 29.2222 11.3388 29.2222 11.9999Z" fill="white"/>
<path d="M33.4177 11.9999V15.5962C33.4177 16.2573 33.9554 16.7949 34.6165 16.7949H36.4146V15.5962H34.6165V14.3974H36.4146V13.1986H34.6165V11.9999H36.4146V10.8011H34.6165C33.9554 10.8011 33.4177 11.3388 33.4177 11.9999Z" fill="white"/>
<path d="M26.2251 10.8011C25.2338 10.8011 24.427 11.6079 24.427 12.5993V16.7949H25.6258V15.5962H26.8245V16.7949H28.0233V12.5993C28.0233 11.6079 27.2165 10.8011 26.2251 10.8011ZM25.6258 14.3974V12.5993C25.6258 12.269 25.8943 11.9999 26.2251 11.9999C26.556 11.9999 26.8245 12.269 26.8245 12.5993V14.3974H25.6258Z" fill="white"/>
<circle cx="28.1757" cy="28.9643" r="27.6757" stroke="white"/>
</svg>

<svg width="57" height="58" viewBox="0 0 57 58" fill="none" xmlns="http://www.w3.org/2000/svg"><path d="M46.599 25.786a.594.594 0 00-.17-.424l-4.795-4.795a.597.597 0 00-.424-.176h-5.994v-1.199h2.997a.6.6 0 00.6-.599v-9.59a.6.6 0 00-.6-.6H17.834a.6.6 0 00-.6.6v9.59c0 .33.269.6.6.6h2.997v1.198h-5.994a.597.597 0 00-.423.176l-4.796 4.795a.594.594 0 00-.17.424h-.005v2.996c0 1.062.465 2.014 1.199 2.674v13.51c0 .33.268.6.599.6h33.565a.6.6 0 00.6-.6v-13.51a3.584 3.584 0 001.198-2.674v-2.996H46.6zM34.017 20.39H32.82v-1.199h1.198v1.2zm-2.397-1.199v1.2h-7.193v-1.2h7.193zm-13.187-9.59h19.18v8.392h-19.18V9.602zm3.597 9.59h1.199v1.2h-1.2v-1.2zm-6.945 2.398h25.877l3.596 3.596H11.49l3.596-3.596zm-4.443 7.192v-2.397h4.795v2.397a2.4 2.4 0 01-2.398 2.398 2.4 2.4 0 01-2.397-2.398zm5.993-2.397h4.795v2.397a2.4 2.4 0 01-2.397 2.398 2.4 2.4 0 01-2.398-2.398v-2.397zm5.994 0h4.795v2.397a2.4 2.4 0 01-2.397 2.398 2.4 2.4 0 01-2.398-2.398v-2.397zm5.994 0h4.795v2.397a2.4 2.4 0 01-2.398 2.398 2.4 2.4 0 01-2.397-2.398v-2.397zm5.994 0h4.795v2.397a2.4 2.4 0 01-2.398 2.398 2.4 2.4 0 01-2.397-2.398v-2.397zM23.828 44.366h-3.596v-8.391h3.596v8.391zm-4.795 0h-3.596v-8.391h3.596v8.391zm21.578 0h-3.597v-8.391h3.597v8.391zm-4.795 0h-3.597v-8.391h3.596v8.391zm8.39 0H41.81v-8.99a.6.6 0 00-.6-.6h-9.59a.6.6 0 00-.599.6v8.99h-5.993v-8.99a.6.6 0 00-.6-.6h-9.59a.6.6 0 00-.6.6v8.99H11.84V32.17c.376.133.778.21 1.2.21 1.25 0 2.351-.642 2.996-1.613a3.594 3.594 0 002.997 1.613c1.25 0 2.352-.642 2.997-1.613a3.594 3.594 0 002.997 1.613c1.25 0 2.352-.642 2.997-1.613a3.594 3.594 0 002.996 1.613c1.25 0 2.353-.642 2.997-1.613a3.594 3.594 0 002.997 1.613c1.25 0 2.352-.642 2.997-1.613a3.594 3.594 0 002.997 1.613c.42 0 .823-.077 1.199-.21v12.197zM43.009 31.18a2.4 2.4 0 01-2.397-2.398v-2.397h4.795v2.397a2.4 2.4 0 01-2.398 2.398z" fill="#fff"/><path d="M19.632 12.6v2.397a1.8 1.8 0 001.798 1.798h1.799v-1.199H21.43a.6.6 0 01-.599-.6V12.6a.6.6 0 01.6-.6h1.798v-1.198H21.43a1.8 1.8 0 00-1.798 1.798zm9.59-.6v4.795h1.199v-2.398h1.798V13.2h-1.798V12h1.798v-1.198h-1.798A1.2 1.2 0 0029.222 12zm4.196 0v3.596a1.2 1.2 0 001.199 1.199h1.798v-1.199h-1.798v-1.199h1.798V13.2h-1.798V12h1.798v-1.198h-1.798a1.2 1.2 0 00-1.2 1.199zm-7.193-1.199a1.8 1.8 0 00-1.798 1.798v4.196h1.199v-1.199h1.198v1.199h1.2v-4.196a1.8 1.8 0 00-1.799-1.798zm-.6 3.596V12.6a.6.6 0 011.2 0v1.798h-1.2z" fill="#fff"/><circle cx="28.176" cy="28.964" r="27.676" stroke="#fff"/></svg>
